src/images/svg/payment-methods/payment-banxa.svg

<svg width="128" height="80" viewBox="0 0 128 80" fill="none" xmlns="http://www.w3.org/2000/svg">
<path fill-rule="evenodd" clip-rule="evenodd" d="M22.6354 36.0332C22.6354 37.427 22.1628 38.7105 21.3689 39.732C22.7093 40.8386 23.5636 42.5129 23.5636 44.3868C23.5636 47.7188 20.8625 50.42 17.5304 50.42H5.92818C5.41556 50.42 5 50.0044 5 49.4918V30.9282C5 30.4156 5.41556 30 5.92818 30H16.6023C19.9343 30 22.6354 32.7011 22.6354 36.0332ZM8.71272 34.6409C8.71272 34.1283 9.12828 33.7127 9.6409 33.7127H16.6023C17.8838 33.7127 18.9227 34.7516 18.9227 36.0332C18.9227 37.3147 17.8838 38.3536 16.6023 38.3536H9.6409C9.12828 38.3536 8.71272 37.9381 8.71272 37.4254V34.6409ZM9.6409 46.7073C9.12828 46.7073 8.71272 46.2917 8.71272 45.7791V42.9945C8.71272 42.4819 9.12828 42.0663 9.6409 42.0663H17.5304C18.812 42.0663 19.8509 43.1053 19.8509 44.3868C19.8509 45.6684 18.812 46.7073 17.5304 46.7073H9.6409Z" fill="#101730"/>
<path fill-rule="evenodd" clip-rule="evenodd" d="M40.5014 30.9548C40.1739 30.3655 39.5528 30 38.8786 30C38.2044 30 37.5833 30.3655 37.2558 30.9548L27.974 47.6621C27.6546 48.2371 27.6633 48.9381 27.9968 49.505C28.3304 50.0719 28.939 50.42 29.5968 50.42H48.1604C48.8182 50.42 49.4268 50.0719 49.7603 49.505C50.0939 48.9381 50.1026 48.2371 49.7832 47.6621L40.5014 30.9548ZM38.8786 35.6788L45.0055 46.7073H32.7517L38.8786 35.6788Z" fill="#101730"/>
<path d="M55.1218 50.4201C54.6091 50.4201 54.1936 50.0046 54.1936 49.492V30.9282C54.1936 30.4156 54.6091 30 55.1218 30H56.4499C56.7052 30 56.9493 30.1052 57.1247 30.2909L69.9727 43.8946V30.9283C69.9727 30.4157 70.3882 30.0002 70.9008 30.0002H72.7572C73.2698 30.0002 73.6854 30.4157 73.6854 30.9283V49.4918C73.6854 50.0044 73.2698 50.42 72.7572 50.42H71.4288C71.1734 50.42 70.9293 50.3148 70.754 50.1291L57.9063 36.5257V49.492C57.9063 50.0046 57.4907 50.4201 56.9781 50.4201H55.1218Z" fill="#101730"/>
<path d="M79.018 31.4957L85.7518 40.2101L79.0181 48.9243C78.5467 49.5344 78.9815 50.42 79.7526 50.42H82.2993C82.594 50.42 82.8713 50.28 83.0462 50.0428L88.2046 43.0502L93.363 50.0428C93.538 50.28 93.8152 50.42 94.11 50.42H96.6567C97.4277 50.42 97.8626 49.5344 97.3912 48.9243L90.6575 40.2101L97.3913 31.4957C97.8627 30.8856 97.4279 30 96.6568 30H94.1101C93.8154 30 93.5381 30.14 93.3632 30.3772L88.2046 37.3699L83.0461 30.3772C82.8711 30.14 82.5939 30 82.2992 30H79.7524C78.9814 30 78.5465 30.8856 79.018 31.4957Z" fill="#101730"/>
<path fill-rule="evenodd" clip-rule="evenodd" d="M111.862 30C112.536 30 113.157 30.3655 113.485 30.9548L122.766 47.6621C123.086 48.2371 123.077 48.9381 122.744 49.505C122.41 50.0719 121.801 50.42 121.144 50.42H102.58C101.922 50.42 101.314 50.0719 100.98 49.505C100.646 48.9381 100.638 48.2371 100.957 47.6621L110.239 30.9548C110.566 30.3655 111.188 30 111.862 30ZM105.735 46.7073H117.989L111.862 35.6788L105.735 46.7073Z" fill="url(#paint0_linear_1615_4146)"/>
<defs>
<linearGradient id="paint0_linear_1615_4146" x1="100.459" y1="50.42" x2="113.453" y2="42.9945" gradientUnits="userSpaceOnUse">
<stop stop-color="#147ABB"/>
<stop offset="1" stop-color="#22BCAD"/>
</linearGradient>
</defs>
</svg>

<svg width="128" height="80" fill="none" xmlns="http://www.w3.org/2000/svg"><path fill-rule="evenodd" clip-rule="evenodd" d="M22.635 36.033a6.007 6.007 0 0 1-1.266 3.699A6.033 6.033 0 0 1 17.53 50.42H5.927A.928.928 0 0 1 5 49.492V30.928c0-.512.416-.928.928-.928h10.674a6.033 6.033 0 0 1 6.033 6.033zM8.713 34.641c0-.513.415-.928.928-.928h6.961a2.32 2.32 0 0 1 0 4.64H9.641a.928.928 0 0 1-.928-.928v-2.784zm.928 12.066a.928.928 0 0 1-.928-.928v-2.785c0-.512.415-.928.928-.928h7.89a2.32 2.32 0 0 1 0 4.641H9.64zM40.501 30.955a1.857 1.857 0 0 0-3.245 0l-9.282 16.707a1.857 1.857 0 0 0 1.623 2.758H48.16a1.856 1.856 0 0 0 1.623-2.758l-9.282-16.707zm-1.622 4.724 6.127 11.028H32.752l6.127-11.028z" fill="#101730"/><path d="M55.122 50.42a.928.928 0 0 1-.928-.928V30.928c0-.512.415-.928.928-.928h1.328c.255 0 .5.105.675.29l12.848 13.605V30.928c0-.512.415-.928.928-.928h1.856c.513 0 .928.416.928.928v18.564a.928.928 0 0 1-.928.928H71.43a.928.928 0 0 1-.675-.29L57.906 36.525v12.966a.928.928 0 0 1-.928.928h-1.856zM79.018 31.496l6.734 8.714-6.734 8.714a.928.928 0 0 0 .735 1.496h2.546c.295 0 .572-.14.747-.377l5.159-6.993 5.158 6.993a.928.928 0 0 0 .747.377h2.547a.928.928 0 0 0 .734-1.496l-6.734-8.714 6.734-8.714A.928.928 0 0 0 96.657 30H94.11a.928.928 0 0 0-.747.377l-5.158 6.993-5.159-6.993A.928.928 0 0 0 82.3 30h-2.547a.928.928 0 0 0-.734 1.496z" fill="#101730"/><path fill-rule="evenodd" clip-rule="evenodd" d="M111.862 30c.674 0 1.295.366 1.623.955l9.281 16.707a1.856 1.856 0 0 1-1.622 2.758H102.58a1.857 1.857 0 0 1-1.623-2.758l9.282-16.707c.327-.59.949-.955 1.623-.955zm-6.127 16.707h12.254l-6.127-11.028-6.127 11.028z" fill="url(#a)"/><defs><linearGradient id="a" x1="100.459" y1="50.42" x2="113.453" y2="42.995" gradientUnits="userSpaceOnUse"><stop stop-color="#147ABB"/><stop offset="1" stop-color="#22BCAD"/></linearGradient></defs></svg>
